assets/img/flag.svg

<svg 
 xmlns="http://www.w3.org/2000/svg"
 xmlns:xlink="http://www.w3.org/1999/xlink"
 width="66px" height="66px">
<defs>
<linearGradient id="PSgrad_0" x1="0%" x2="0%" y1="100%" y2="0%">
  <stop offset="0%" stop-color="rgb(255,255,255)" stop-opacity="1" />
  <stop offset="76%" stop-color="rgb(189,228,244)" stop-opacity="1" />
  <stop offset="100%" stop-color="rgb(123,200,233)" stop-opacity="1" />
</linearGradient>
<linearGradient id="PSgrad_1" x1="0%" x2="0%" y1="100%" y2="0%">
  <stop offset="0%" stop-color="rgb(123,200,233)" stop-opacity="1" />
  <stop offset="24%" stop-color="rgb(189,228,244)" stop-opacity="1" />
  <stop offset="100%" stop-color="rgb(255,255,255)" stop-opacity="1" />
</linearGradient>

</defs>
<path fill-rule="evenodd"  opacity="0.369" fill="rgb(255, 255, 255)"
 d="M38.500,21.000 C50.926,21.000 61.000,31.074 61.000,43.500 C61.000,55.926 50.926,66.000 38.500,66.000 C26.074,66.000 16.000,55.926 16.000,43.500 C16.000,31.074 26.074,21.000 38.500,21.000 Z"/>
<path fill="url(#PSgrad_0)"
 d="M38.500,21.000 C50.926,21.000 61.000,31.074 61.000,43.500 C61.000,55.926 50.926,66.000 38.500,66.000 C26.074,66.000 16.000,55.926 16.000,43.500 C16.000,31.074 26.074,21.000 38.500,21.000 Z"/>
<path fill-rule="evenodd"  opacity="0.588" fill="rgb(255, 255, 255)"
 d="M11.000,0.000 C17.075,0.000 22.000,4.925 22.000,11.000 C22.000,17.075 17.075,22.000 11.000,22.000 C4.925,22.000 -0.000,17.075 -0.000,11.000 C-0.000,4.925 4.925,0.000 11.000,0.000 Z"/>
<path fill="url(#PSgrad_1)"
 d="M11.000,0.000 C17.075,0.000 22.000,4.925 22.000,11.000 C22.000,17.075 17.075,22.000 11.000,22.000 C4.925,22.000 -0.000,17.075 -0.000,11.000 C-0.000,4.925 4.925,0.000 11.000,0.000 Z"/>
<path fill-rule="evenodd"  fill="rgb(0, 111, 235)"
 d="M34.674,16.303 L40.786,8.075 C41.030,7.746 41.068,7.308 40.885,6.941 C40.702,6.575 40.329,6.343 39.920,6.343 L13.606,6.343 L13.606,4.962 C14.497,4.550 15.117,3.646 15.117,2.599 C15.116,1.166 13.955,0.000 12.527,0.000 C11.099,0.000 9.938,1.166 9.938,2.599 C9.938,3.646 10.557,4.550 11.447,4.961 L11.447,44.833 L10.080,44.833 C9.483,44.833 9.000,45.318 9.000,45.916 C9.000,46.515 9.483,47.000 10.080,47.000 L14.975,47.000 C15.571,47.000 16.054,46.515 16.054,45.916 C16.054,45.318 15.571,44.833 14.975,44.833 L13.606,44.833 L13.606,26.221 L39.881,26.221 C40.289,26.221 40.663,25.990 40.846,25.624 C41.029,25.258 40.991,24.819 40.747,24.490 L34.674,16.303 ZM12.527,3.248 C12.171,3.248 11.881,2.957 11.881,2.599 C11.881,2.242 12.171,1.951 12.527,1.951 C12.884,1.951 13.174,2.242 13.174,2.599 C13.174,2.957 12.883,3.248 12.527,3.248 ZM13.607,24.054 L13.607,24.054 L13.607,20.455 L17.047,20.455 C17.643,20.455 18.126,19.969 18.126,19.371 C18.126,18.772 17.643,18.287 17.047,18.287 L13.607,18.287 L13.607,14.278 L18.990,14.278 C19.586,14.278 20.069,13.793 20.069,13.194 C20.069,12.596 19.586,12.111 18.990,12.111 L13.607,12.111 L13.607,8.511 L37.769,8.511 L32.463,15.654 C32.177,16.038 32.177,16.565 32.462,16.950 L37.732,24.054 L13.607,24.054 L13.607,24.054 Z"/>
<path fill-rule="evenodd"  fill-opacity="0" fill="rgb(26, 26, 37)"
 d="M0.000,0.000 L66.000,0.000 L66.000,66.000 L0.000,66.000 L0.000,0.000 Z"/>
</svg>

<?xml version="1.0" encoding="utf-8"?>
<!-- Generator: Adobe Illustrator 21.1.0, SVG Export Plug-In . SVG Version: 6.00 Build 0)  -->
<svg version="1.1" id="Слой_1" xmlns="http://www.w3.org/2000/svg" xmlns:xlink="http://www.w3.org/1999/xlink" x="0px" y="0px"
	 viewBox="0 0 66 66" style="enable-background:new 0 0 66 66;" xml:space="preserve">
<style type="text/css">
	.st0{opacity:0.369;fill:#FFFFFF;enable-background:new    ;}
	.st1{opacity:0.4;fill:url(#SVGID_1_);}
	.st2{opacity:0.588;fill:#FFFFFF;enable-background:new    ;}
	.st3{opacity:0.3;fill:url(#SVGID_2_);}
	.st4{fill:#006FEB;}
	.st5{fill:#1A1A25;fill-opacity:0;}
</style>
<path class="st0" d="M38.5,21C50.9,21,61,31.1,61,43.5S50.9,66,38.5,66S16,55.9,16,43.5S26.1,21,38.5,21z"/>
<linearGradient id="SVGID_1_" gradientUnits="userSpaceOnUse" x1="-748.4778" y1="815.9778" x2="-748.4778" y2="816.9778" gradientTransform="matrix(45 0 0 -45 33720 36785)">
	<stop  offset="0" style="stop-color:#FFFFFF"/>
	<stop  offset="0.76" style="stop-color:#BDE4F4"/>
	<stop  offset="1" style="stop-color:#7BC8E9"/>
</linearGradient>
<path class="st1" d="M38.5,21C50.9,21,61,31.1,61,43.5S50.9,66,38.5,66S16,55.9,16,43.5S26.1,21,38.5,21z"/>
<path class="st2" d="M11,0c6.1,0,11,4.9,11,11s-4.9,11-11,11S0,17.1,0,11S4.9,0,11,0z"/>
<linearGradient id="SVGID_2_" gradientUnits="userSpaceOnUse" x1="-730.6818" y1="798.1818" x2="-730.6818" y2="799.1818" gradientTransform="matrix(22 0 0 -22 16086 17582)">
	<stop  offset="0" style="stop-color:#7BC8E9"/>
	<stop  offset="0.24" style="stop-color:#BDE4F4"/>
	<stop  offset="1" style="stop-color:#FFFFFF"/>
</linearGradient>
<path class="st3" d="M11,0c6.1,0,11,4.9,11,11s-4.9,11-11,11S0,17.1,0,11S4.9,0,11,0z"/>
<path class="st4" d="M34.7,16.3l6.1-8.2c0.2-0.3,0.3-0.8,0.1-1.1c-0.2-0.4-0.6-0.6-1-0.6H13.6V5c0.9-0.4,1.5-1.3,1.5-2.4
	C15.1,1.2,14,0,12.5,0S9.9,1.2,9.9,2.6c0,1,0.6,2,1.5,2.4v39.9h-1.4c-0.6,0-1.1,0.5-1.1,1.1c0,0.6,0.5,1.1,1.1,1.1H15
	c0.6,0,1.1-0.5,1.1-1.1c0-0.6-0.5-1.1-1.1-1.1h-1.4V26.2h26.3c0.4,0,0.8-0.2,1-0.6c0.2-0.4,0.1-0.8-0.1-1.1L34.7,16.3z M12.5,3.2
	c-0.4,0-0.6-0.3-0.6-0.6c0-0.4,0.3-0.6,0.6-0.6c0.4,0,0.6,0.3,0.6,0.6C13.2,3,12.9,3.2,12.5,3.2z M13.6,24.1L13.6,24.1v-3.6H17
	c0.6,0,1.1-0.5,1.1-1.1c0-0.6-0.5-1.1-1.1-1.1h-3.4v-4H19c0.6,0,1.1-0.5,1.1-1.1c0-0.6-0.5-1.1-1.1-1.1h-5.4V8.5h24.2l-5.3,7.1
	c-0.3,0.4-0.3,0.9,0,1.3l5.3,7.1H13.6L13.6,24.1z"/>
<path class="st5" d="M0,0h66v66H0V0z"/>
</svg>
